X: 1413
T: Ellenbrae Polka
C:Bob Rummery, Sorrento, WA
B: australian traditional tunes wiki
M:2/4
L:1/16
R: Polka
Q: 1/4=100
K:G
V:1 
B2|:"G"d2Bc d2d2|dedc BAG2|"C"e2ed c2c2|cdcB "D7"A4|
"G"d2Bc d2d2|dedc BAG2|"C"edcB cBAG|"D7"FGAF "G"G4:|
|:"D"F2FG A2e2|"G"dedc B2(3GBd|"C"e2ce "G"d2d2|dedB "D7"A4|
"D"F2FG AGFA|"G"GABc d4|"C"edcB cBAG|"D7"FGAF "G"G4:|
% abcbook-tune_id 6342d53accfc79b96ba6a279


% abcbook-boost 0
% abcbook-tablature 
% abcbook-transpose 
% abcbook-lastupdated 1665324363976
% abcbook-soundfonts 
% abcbook-repeats 1
% NFF Book 2014

